icons/svg/water/stream.svg

<?xml version="1.0" encoding="UTF-8" standalone="no"?>
<!-- Created with Inkscape (http://www.inkscape.org/) -->

<svg
   xmlns:dc="http://purl.org/dc/elements/1.1/"
   xmlns:cc="http://creativecommons.org/ns#"
   xmlns:rdf="http://www.w3.org/1999/02/22-rdf-syntax-ns#"
   xmlns:svg="http://www.w3.org/2000/svg"
   xmlns="http://www.w3.org/2000/svg"
   xmlns:sodipodi="http://sodipodi.sourceforge.net/DTD/sodipodi-0.dtd"
   xmlns:inkscape="http://www.inkscape.org/namespaces/inkscape"
   version="1.0"
   width="580"
   height="580"
   id="svg2"
   sodipodi:version="0.32"
   inkscape:version="0.91 r"
   sodipodi:docname="stream.svg"
   inkscape:output_extension="org.inkscape.output.svg.inkscape">
  <metadata
     id="metadata2975">
    <rdf:RDF>
      <cc:Work
         rdf:about="">
        <dc:format>image/svg+xml</dc:format>
        <dc:type
           rdf:resource="http://purl.org/dc/dcmitype/StillImage" />
        <dc:title></dc:title>
      </cc:Work>
    </rdf:RDF>
  </metadata>
  <sodipodi:namedview
     inkscape:window-height="1004"
     inkscape:window-width="1920"
     inkscape:pageshadow="2"
     inkscape:pageopacity="0.0"
     guidetolerance="10.0"
     gridtolerance="10.0"
     objecttolerance="10.0"
     borderopacity="1.0"
     bordercolor="#666666"
     pagecolor="#ffffff"
     id="base"
     inkscape:zoom="0.32"
     inkscape:cx="709.15002"
     inkscape:cy="186.21618"
     inkscape:window-x="1680"
     inkscape:window-y="0"
     inkscape:current-layer="svg2"
     showgrid="false"
     inkscape:window-maximized="1" />
  <defs
     id="defs4">
    <inkscape:perspective
       sodipodi:type="inkscape:persp3d"
       inkscape:vp_x="0 : 290 : 1"
       inkscape:vp_y="0 : 1000 : 0"
       inkscape:vp_z="580 : 290 : 1"
       inkscape:persp3d-origin="290 : 193.33333 : 1"
       id="perspective2441" />
    <inkscape:perspective
       id="perspective2466"
       inkscape:persp3d-origin="372.04724 : 350.78739 : 1"
       inkscape:vp_z="744.09448 : 526.18109 : 1"
       inkscape:vp_y="0 : 1000 : 0"
       inkscape:vp_x="0 : 526.18109 : 1"
       sodipodi:type="inkscape:persp3d" />
    <inkscape:perspective
       id="perspective3333"
       inkscape:persp3d-origin="372.04724 : 350.78739 : 1"
       inkscape:vp_z="744.09448 : 526.18109 : 1"
       inkscape:vp_y="0 : 1000 : 0"
       inkscape:vp_x="0 : 526.18109 : 1"
       sodipodi:type="inkscape:persp3d" />
    <inkscape:perspective
       id="perspective3401"
       inkscape:persp3d-origin="372.04724 : 350.78739 : 1"
       inkscape:vp_z="744.09448 : 526.18109 : 1"
       inkscape:vp_y="0 : 1000 : 0"
       inkscape:vp_x="0 : 526.18109 : 1"
       sodipodi:type="inkscape:persp3d" />
    <inkscape:perspective
       id="perspective3464"
       inkscape:persp3d-origin="372.04724 : 350.78739 : 1"
       inkscape:vp_z="744.09448 : 526.18109 : 1"
       inkscape:vp_y="0 : 1000 : 0"
       inkscape:vp_x="0 : 526.18109 : 1"
       sodipodi:type="inkscape:persp3d" />
    <inkscape:perspective
       id="perspective3581"
       inkscape:persp3d-origin="225 : 150 : 1"
       inkscape:vp_z="450 : 225 : 1"
       inkscape:vp_y="0 : 1000 : 0"
       inkscape:vp_x="0 : 225 : 1"
       sodipodi:type="inkscape:persp3d" />
    <inkscape:perspective
       id="perspective4312"
       inkscape:persp3d-origin="225 : 150 : 1"
       inkscape:vp_z="450 : 225 : 1"
       inkscape:vp_y="0 : 1000 : 0"
       inkscape:vp_x="0 : 225 : 1"
       sodipodi:type="inkscape:persp3d" />
    <inkscape:perspective
       id="perspective8860"
       inkscape:persp3d-origin="372.04724 : 350.78739 : 1"
       inkscape:vp_z="744.09448 : 526.18109 : 1"
       inkscape:vp_y="0 : 1000 : 0"
       inkscape:vp_x="0 : 526.18109 : 1"
       sodipodi:type="inkscape:persp3d" />
    <inkscape:perspective
       id="perspective8887"
       inkscape:persp3d-origin="372.04724 : 350.78739 : 1"
       inkscape:vp_z="744.09448 : 526.18109 : 1"
       inkscape:vp_y="0 : 1000 : 0"
       inkscape:vp_x="0 : 526.18109 : 1"
       sodipodi:type="inkscape:persp3d" />
    <inkscape:perspective
       sodipodi:type="inkscape:persp3d"
       inkscape:vp_x="0 : 16 : 1"
       inkscape:vp_y="0 : 1000 : 0"
       inkscape:vp_z="32 : 16 : 1"
       inkscape:persp3d-origin="16 : 10.666667 : 1"
       id="perspective4904" />
    <inkscape:perspective
       sodipodi:type="inkscape:persp3d"
       inkscape:vp_x="0 : 6 : 1"
       inkscape:vp_y="0 : 1000 : 0"
       inkscape:vp_z="12 : 6 : 1"
       inkscape:persp3d-origin="6 : 4 : 1"
       id="perspective4668" />
    <inkscape:perspective
       sodipodi:type="inkscape:persp3d"
       inkscape:vp_x="0 : 526.18109 : 1"
       inkscape:vp_y="0 : 1000 : 0"
       inkscape:vp_z="744.09448 : 526.18109 : 1"
       inkscape:persp3d-origin="372.04724 : 350.78739 : 1"
       id="perspective4471" />
    <symbol
       id="symbol-university"
       viewBox="244.5 110 489 219.9">
      <path
         d="M79,43l57,119c0,0,21-96,104-96s124,106,124,106l43-133l82-17L0,17L79,43z"
         id="path4460" />
      <path
         fill="none"
         stroke="#000000"
         stroke-width="20"
         d="M94,176l-21,39"
         id="path4462" />
      <path
         d="M300,19c0,10.5-22.6,19-50.5,19S199,29.5,199,19s22.6-19,50.5-19S300,8.5,300,19z"
         id="path4464" />
      <path
         ill="none"
         stroke="#000000"
         stroke-width="20"
         d="M112,216l-16-38L64,88c0,0-9-8-4-35s16-24,16-24"
         id="path4466" />
    </symbol>
    <inkscape:perspective
       sodipodi:type="inkscape:persp3d"
       inkscape:vp_x="0 : 30 : 1"
       inkscape:vp_y="0 : 1000 : 0"
       inkscape:vp_z="60 : 30 : 1"
       inkscape:persp3d-origin="30 : 20 : 1"
       id="perspective3452" />
    <inkscape:perspective
       id="perspective9479"
       inkscape:persp3d-origin="290 : 193.33333 : 1"
       inkscape:vp_z="580 : 290 : 1"
       inkscape:vp_y="0 : 1000 : 0"
       inkscape:vp_x="0 : 290 : 1"
       sodipodi:type="inkscape:persp3d" />
    <inkscape:perspective
       id="perspective9690"
       inkscape:persp3d-origin="372.04724 : 350.78739 : 1"
       inkscape:vp_z="744.09448 : 526.18109 : 1"
       inkscape:vp_y="0 : 1000 : 0"
       inkscape:vp_x="0 : 526.18109 : 1"
       sodipodi:type="inkscape:persp3d" />
    <inkscape:perspective
       sodipodi:type="inkscape:persp3d"
       inkscape:vp_x="0 : 290 : 1"
       inkscape:vp_y="0 : 1000 : 0"
       inkscape:vp_z="580 : 290 : 1"
       inkscape:persp3d-origin="290 : 193.33333 : 1"
       id="perspective9819" />
    <inkscape:perspective
       id="perspective9817"
       inkscape:persp3d-origin="30 : 20 : 1"
       inkscape:vp_z="60 : 30 : 1"
       inkscape:vp_y="0 : 1000 : 0"
       inkscape:vp_x="0 : 30 : 1"
       sodipodi:type="inkscape:persp3d" />
    <symbol
       viewBox="244.5 110 489 219.9"
       id="symbol9807">
      <path
         id="path9809"
         d="M79,43l57,119c0,0,21-96,104-96s124,106,124,106l43-133l82-17L0,17L79,43z" />
      <path
         id="path9811"
         d="M94,176l-21,39"
         stroke-width="20"
         stroke="#000000"
         fill="none" />
      <path
         id="path9813"
         d="M300,19c0,10.5-22.6,19-50.5,19S199,29.5,199,19s22.6-19,50.5-19S300,8.5,300,19z" />
      <path
         id="path9815"
         d="M112,216l-16-38L64,88c0,0-9-8-4-35s16-24,16-24"
         stroke-width="20"
         stroke="#000000"
         ill="none" />
    </symbol>
    <inkscape:perspective
       id="perspective9805"
       inkscape:persp3d-origin="372.04724 : 350.78739 : 1"
       inkscape:vp_z="744.09448 : 526.18109 : 1"
       inkscape:vp_y="0 : 1000 : 0"
       inkscape:vp_x="0 : 526.18109 : 1"
       sodipodi:type="inkscape:persp3d" />
    <inkscape:perspective
       id="perspective9803"
       inkscape:persp3d-origin="6 : 4 : 1"
       inkscape:vp_z="12 : 6 : 1"
       inkscape:vp_y="0 : 1000 : 0"
       inkscape:vp_x="0 : 6 : 1"
       sodipodi:type="inkscape:persp3d" />
    <inkscape:perspective
       id="perspective9801"
       inkscape:persp3d-origin="16 : 10.666667 : 1"
       inkscape:vp_z="32 : 16 : 1"
       inkscape:vp_y="0 : 1000 : 0"
       inkscape:vp_x="0 : 16 : 1"
       sodipodi:type="inkscape:persp3d" />
    <inkscape:perspective
       sodipodi:type="inkscape:persp3d"
       inkscape:vp_x="0 : 526.18109 : 1"
       inkscape:vp_y="0 : 1000 : 0"
       inkscape:vp_z="744.09448 : 526.18109 : 1"
       inkscape:persp3d-origin="372.04724 : 350.78739 : 1"
       id="perspective9799" />
    <inkscape:perspective
       sodipodi:type="inkscape:persp3d"
       inkscape:vp_x="0 : 526.18109 : 1"
       inkscape:vp_y="0 : 1000 : 0"
       inkscape:vp_z="744.09448 : 526.18109 : 1"
       inkscape:persp3d-origin="372.04724 : 350.78739 : 1"
       id="perspective9797" />
    <inkscape:perspective
       sodipodi:type="inkscape:persp3d"
       inkscape:vp_x="0 : 225 : 1"
       inkscape:vp_y="0 : 1000 : 0"
       inkscape:vp_z="450 : 225 : 1"
       inkscape:persp3d-origin="225 : 150 : 1"
       id="perspective9795" />
    <inkscape:perspective
       sodipodi:type="inkscape:persp3d"
       inkscape:vp_x="0 : 225 : 1"
       inkscape:vp_y="0 : 1000 : 0"
       inkscape:vp_z="450 : 225 : 1"
       inkscape:persp3d-origin="225 : 150 : 1"
       id="perspective9793" />
    <inkscape:perspective
       sodipodi:type="inkscape:persp3d"
       inkscape:vp_x="0 : 526.18109 : 1"
       inkscape:vp_y="0 : 1000 : 0"
       inkscape:vp_z="744.09448 : 526.18109 : 1"
       inkscape:persp3d-origin="372.04724 : 350.78739 : 1"
       id="perspective9791" />
    <inkscape:perspective
       sodipodi:type="inkscape:persp3d"
       inkscape:vp_x="0 : 526.18109 : 1"
       inkscape:vp_y="0 : 1000 : 0"
       inkscape:vp_z="744.09448 : 526.18109 : 1"
       inkscape:persp3d-origin="372.04724 : 350.78739 : 1"
       id="perspective9789" />
    <inkscape:perspective
       sodipodi:type="inkscape:persp3d"
       inkscape:vp_x="0 : 526.18109 : 1"
       inkscape:vp_y="0 : 1000 : 0"
       inkscape:vp_z="744.09448 : 526.18109 : 1"
       inkscape:persp3d-origin="372.04724 : 350.78739 : 1"
       id="perspective9787" />
    <inkscape:perspective
       sodipodi:type="inkscape:persp3d"
       inkscape:vp_x="0 : 526.18109 : 1"
       inkscape:vp_y="0 : 1000 : 0"
       inkscape:vp_z="744.09448 : 526.18109 : 1"
       inkscape:persp3d-origin="372.04724 : 350.78739 : 1"
       id="perspective9785" />
    <inkscape:perspective
       id="perspective9783"
       inkscape:persp3d-origin="290 : 193.33333 : 1"
       inkscape:vp_z="580 : 290 : 1"
       inkscape:vp_y="0 : 1000 : 0"
       inkscape:vp_x="0 : 290 : 1"
       sodipodi:type="inkscape:persp3d" />
    <defs
       id="defs48974" />
    <sodipodi:namedview
       pagecolor="#ffffff"
       inkscape:zoom="0.61399264"
       inkscape:window-y="26"
       inkscape:window-x="0"
       inkscape:window-width="1012"
       inkscape:window-height="739"
       inkscape:pageshadow="2"
       inkscape:pageopacity="0.0"
       inkscape:cy="250.37448"
       inkscape:cx="475.26707"
       id="namedview4258"
       borderopacity="1.0"
       bordercolor="#666666" />
    <inkscape:perspective
       id="perspective11483"
       inkscape:persp3d-origin="100 : 66.666667 : 1"
       inkscape:vp_z="200 : 100 : 1"
       inkscape:vp_y="0 : 1000 : 0"
       inkscape:vp_x="0 : 100 : 1"
       sodipodi:type="inkscape:persp3d" />
    <linearGradient
       id="linearGradient2936">
      <stop
         style="stop-color:#8acf6b;stop-opacity:1.0000000;"
         offset="0.0000000"
         id="stop2938" />
      <stop
         style="stop-color:#368912;stop-opacity:1.0000000;"
         offset="1.0000000"
         id="stop2940" />
    </linearGradient>
    <linearGradient
       id="linearGradient2952">
      <stop
         style="stop-color:#c0d50d;stop-opacity:1;"
         offset="0"
         id="stop2954" />
      <stop
         style="stop-color:#eef2cd;stop-opacity:1.0000000;"
         offset="1.0000000"
         id="stop2956" />
    </linearGradient>
    <inkscape:perspective
       id="perspective34"
       inkscape:persp3d-origin="372.04724 : 350.78739 : 1"
       inkscape:vp_z="744.09448 : 526.18109 : 1"
       inkscape:vp_y="0 : 1000 : 0"
       inkscape:vp_x="0 : 526.18109 : 1"
       sodipodi:type="inkscape:persp3d" />
    <inkscape:perspective
       id="perspective12300"
       inkscape:persp3d-origin="372.04724 : 350.78739 : 1"
       inkscape:vp_z="744.09448 : 526.18109 : 1"
       inkscape:vp_y="0 : 1000 : 0"
       inkscape:vp_x="0 : 526.18109 : 1"
       sodipodi:type="inkscape:persp3d" />
    <inkscape:perspective
       id="perspective3653"
       inkscape:persp3d-origin="290 : 193.33333 : 1"
       inkscape:vp_z="580 : 290 : 1"
       inkscape:vp_y="0 : 1000 : 0"
       inkscape:vp_x="0 : 290 : 1"
       sodipodi:type="inkscape:persp3d" />
  </defs>
  <g
     id="g1327">
    <path
       d="M 66.275,1.768 C 24.94,1.768 1.704,23.139 1.704,66.804 L 1.704,516.927 C 1.704,557.771 22.599,579.156 63.896,579.156 L 515.92,579.156 C 557.227,579.156 578.149,558.841 578.149,516.927 L 578.149,66.804 C 578.149,24.203 557.227,1.768 514.628,1.768 C 514.624,1.768 66.133,1.625 66.275,1.768 z "
       style="fill:#111;stroke:none;stroke-width:3.40799999"
       id="path1329" />
  </g>
  <g
     transform="matrix(0.43358442,0,0,0.43358442,121.37822,109.54597)"
     id="g1327-8"
     style="fill:#ffffff;fill-opacity:1;stroke:#fefefe;stroke-width:65.80000305;stroke-linecap:butt;stroke-linejoin:round;stroke-miterlimit:4;stroke-dasharray:none;stroke-opacity:0.68181817" />
  <g
     transform="matrix(0.4468846,0,0,0.4468846,-9.8621601,83.59183)"
     id="g1327-3"
     style="fill:#ffffff;fill-opacity:1;stroke:#fefefe;stroke-width:65.80000305;stroke-linecap:butt;stroke-linejoin:round;stroke-miterlimit:4;stroke-dasharray:none;stroke-opacity:0.68181817" />
  <path
     inkscape:connector-curvature="0"
     d="m 46.614315,82.161205 c 0,0 168.943285,43.944915 168.943285,143.837825 0,58.9532 -106.44329,81.87945 -106.44329,150.65818 0,90.06739 106.44329,121.18158 106.44329,121.18158 l 257.10144,0 c 0,0 -167.03404,-39.30212 -167.03404,-121.18158 0,-68.77873 54.09572,-117.51981 8.57857,-179.18816 C 274.93178,145.893 249.5397,133.98944 208.19727,118.87995 166.85483,103.77049 46.614315,82.161205 46.614315,82.161205 Z"
     id="path5"
     style="fill:#ffffff;fill-opacity:1;stroke:none"
     sodipodi:nodetypes="cssccsczc" />
  <path
     inkscape:connector-curvature="0"
     d="m 418.75445,440.52318 36.02693,16.37588 c 0,-191.59789 78.6043,-253.82628 78.6043,-253.82628 0,0 -114.63123,40.93973 -114.63123,237.4504 z"
     id="path7"
     style="fill:#ffffff;fill-opacity:1;stroke:none"
     sodipodi:nodetypes="cccc" />
  <path
     inkscape:connector-curvature="0"
     d="m 476.07004,361.91892 c -8.18792,27.839 -8.18792,91.70498 -8.18792,91.70498 19.65108,-96.61775 65.50356,-157.20854 65.50356,-157.20854 0,0 -37.66456,27.83902 -57.31564,65.50356 z"
     id="path9"
     style="fill:#ffffff;fill-opacity:1;stroke:none"
     sodipodi:nodetypes="cccc" />
  <path
     inkscape:connector-curvature="0"
     d="m 467.88213,106.45505 c -93.3426,112.99362 -93.3426,201.42343 -93.3426,307.86671 l 22.92627,16.37589 c 0,-116.26881 4.91275,-207.97379 86.79217,-309.5043 z"
     id="path11"
     style="fill:#ffffff;fill-opacity:1;stroke:none"
     sodipodi:nodetypes="ccccc" />
  <path
     style="color:#000000;font-style:normal;font-variant:normal;font-weight:normal;font-stretch:normal;font-size:medium;line-height:normal;font-family:sans-serif;text-indent:0;text-align:start;text-decoration:none;text-decoration-line:none;text-decoration-style:solid;text-decoration-color:#000000;letter-spacing:normal;word-spacing:normal;text-transform:none;direction:ltr;block-progression:tb;writing-mode:lr-tb;baseline-shift:baseline;text-anchor:start;white-space:normal;clip-rule:nonzero;display:inline;overflow:visible;visibility:visible;opacity:1;isolation:auto;mix-blend-mode:normal;color-interpolation:sRGB;color-interpolation-filters:linearRGB;solid-color:#000000;solid-opacity:1;fill:#ffffff;fill-opacity:1;fill-rule:nonzero;stroke:none;stroke-width:3.4000001;stroke-linecap:round;stroke-linejoin:miter;stroke-miterlimit:10;stroke-dasharray:none;stroke-dashoffset:0;stroke-opacity:1;color-rendering:auto;image-rendering:auto;shape-rendering:auto;text-rendering:auto;enable-background:accumulate"
     d="m 447.98802,124.13593 c -10.17658,0.14963 -19.46057,5.84019 -24.2121,14.84065 -9.03311,16.56062 -26.25941,43.42935 -36.14206,71.10084 -5.55244,14.57871 1.95571,30.87392 16.6453,36.12596 14.68959,5.25205 30.82728,-2.58895 35.77671,-17.38326 6.49319,-18.18117 22.00573,-43.70234 32.62386,-63.16869 10.56376,-18.73038 -3.19044,-41.85607 -24.69171,-41.5155 z"
     id="path13"
     inkscape:connector-curvature="0"
     sodipodi:nodetypes="cccsccc" />
</svg>

<svg width="580" height="580" viewBox="0 0 580 580" fill="none" xmlns="http://www.w3.org/2000/svg">
<path d="M66.2751 1.76799C24.9401 1.76799 1.7041 23.139 1.7041 66.804V516.927C1.7041 557.771 22.5991 579.156 63.8961 579.156H515.92C557.227 579.156 578.149 558.841 578.149 516.927V66.804C578.149 24.203 557.227 1.76799 514.628 1.76799C514.624 1.76799 66.1331 1.62499 66.2751 1.76799Z" fill="#111111"/>
<path d="M46.6143 82.1612C46.6143 82.1612 215.558 126.106 215.558 225.999C215.558 284.952 109.114 307.878 109.114 376.657C109.114 466.725 215.558 497.839 215.558 497.839H472.659C472.659 497.839 305.625 458.537 305.625 376.657C305.625 307.878 359.721 259.137 314.204 197.469C274.932 145.893 249.54 133.989 208.197 118.88C166.855 103.77 46.6143 82.1612 46.6143 82.1612Z" fill="white"/>
<path d="M418.754 440.523L454.781 456.899C454.781 265.301 533.386 203.073 533.386 203.073C533.386 203.073 418.754 244.012 418.754 440.523V440.523Z" fill="white"/>
<path d="M476.07 361.919C467.882 389.758 467.882 453.624 467.882 453.624C487.533 357.006 533.386 296.415 533.386 296.415C533.386 296.415 495.721 324.254 476.07 361.919V361.919Z" fill="white"/>
<path d="M467.882 106.455C374.54 219.449 374.54 307.878 374.54 414.322L397.466 430.698C397.466 314.429 402.379 222.724 484.258 121.193L467.882 106.455Z" fill="white"/>
<path d="M447.988 124.136C437.812 124.286 428.528 129.976 423.776 138.977C414.743 155.537 397.517 182.406 387.634 210.077C382.082 224.656 389.59 240.951 404.279 246.203C418.969 251.455 435.107 243.614 440.056 228.82C446.549 210.639 462.062 185.118 472.68 165.651C483.244 146.921 469.489 123.795 447.988 124.136V124.136Z" fill="white"/>
</svg>
